X:183
T:The Jacket Blue
R:song
H:"Genteel he was, not at all like you,
A:Antrim
B:
O:Irish
M:3/4
L:1/8
W:"What kind of clothes does your William wear,
W: Or what was the colour of your William's hair"
W: For you advise me, for you advise me,
W:    To slight my sailor with his jacket blue."
K:G
D|\
BB B2 AB|GA E3 F|G/A/B/c/ d>c de|dA B3 B/c/|de G2 FE|
FG A2 BA|BE E>D GA|Bd e>d ec|BA G>F ED|EF G3||
